; generated by Slic3r 1.3.0 on 2022-04-24 at 13:33:14

; external perimeters extrusion width = 0.44mm (5.07mm^3/s)
; perimeters extrusion width = 0.48mm (11.31mm^3/s)
; infill extrusion width = 0.48mm (13.82mm^3/s)
; solid infill extrusion width = 0.48mm (7.54mm^3/s)
; top infill extrusion width = 0.48mm (1.88mm^3/s)
; support material extrusion width = 0.44mm (6.76mm^3/s)

M190 S110 ; set bed temperature and wait for it to be reached
M104 S260 ; set temperature
G28 ; home all axes
G1 Z5 F5000 ; lift nozzle

; Filament gcode

M109 S260 ; set temperature and wait for it to be reached
G21 ; set units to millimeters
G90 ; use absolute coordinates
M82 ; use absolute distances for extrusion
G92 E0
G1 Z0.500 F7800.000
G1 E-5.00000 F2400.00000
G92 E0
G1 Z3.500 F7800.000
G1 X74.791 Y83.030 F7800.000
G1 Z0.500 F7800.000
G1 E5.00000 F2400.00000
G1 F1800
G1 X76.501 Y81.791 E5.13728
G1 X78.886 Y81.261 E5.29609
G1 X156.114 Y81.261 E10.31608
G1 X158.188 Y81.657 E10.45336
G1 X159.970 Y82.791 E10.59064
G1 X161.209 Y84.502 E10.72792
G1 X161.739 Y86.886 E10.88673
G1 X161.739 Y148.114 E14.86666
G1 X161.343 Y150.188 E15.00394
G1 X160.209 Y151.970 E15.14123
G1 X158.499 Y153.209 E15.27851
G1 X156.114 Y153.739 E15.43731
G1 X78.886 Y153.739 E20.45730
G1 X76.812 Y153.343 E20.59458
G1 X75.030 Y152.209 E20.73187
G1 X73.791 Y150.498 E20.86915
G1 X73.261 Y148.114 E21.02795
G1 X73.261 Y86.886 E25.00789
G1 X73.657 Y84.812 E25.14517
G1 X74.759 Y83.081 E25.27855
G1 X75.099 Y83.160 F7800.000
G1 F1800
G1 X76.794 Y82.003 E25.41193
G1 X78.886 Y81.574 E25.55077
G1 X156.114 Y81.574 E30.57076
G1 X158.127 Y81.970 E30.70414
G1 X159.840 Y83.100 E30.83751
G1 X160.997 Y84.794 E30.97089
G1 X161.426 Y86.886 E31.10974
G1 X161.426 Y148.114 E35.08967
G1 X161.030 Y150.127 E35.22304
G1 X159.901 Y151.840 E35.35642
G1 X158.206 Y152.997 E35.48980
G1 X156.114 Y153.426 E35.62864
G1 X78.886 Y153.426 E40.64863
G1 X76.873 Y153.030 E40.78201
G1 X75.160 Y151.901 E40.91538
G1 X74.003 Y150.206 E41.04876
G1 X73.574 Y148.114 E41.18761
G1 X73.574 Y86.886 E45.16754
G1 X73.970 Y84.873 E45.30091
G1 X75.066 Y83.210 E45.43039
G1 X76.155 Y84.216 F7800.000
G1 F1800
G1 X76.756 Y83.615 E45.48929
G1 X78.079 Y83.067 E45.58850
G1 X157.604 Y83.067 E51.09897
G1 X159.713 Y85.175 E51.30556
G1 X159.713 Y85.863 E51.35318
G1 X159.933 Y86.412 E51.39420
G1 X159.933 Y148.921 E55.72556
G1 X159.385 Y150.244 E55.82477
G1 X158.244 Y151.385 E55.93662
G1 X156.921 Y151.933 E56.03583
G1 X77.396 Y151.933 E61.54630
G1 X75.287 Y149.825 E61.75289
G1 X75.287 Y149.137 E61.80051
G1 X75.067 Y148.588 E61.84153
G1 X75.067 Y86.079 E66.17289
G1 X75.615 Y84.756 E66.27210
G1 X76.113 Y84.258 E66.32090
G1 X76.391 Y84.452 F7800.000
G1 F1800
G1 X76.945 Y83.898 E66.37520
G1 X78.145 Y83.400 E66.46522
G1 X157.466 Y83.400 E71.96153
G1 X159.379 Y85.313 E72.14899
G1 X159.379 Y85.929 E72.19163
G1 X159.600 Y86.478 E72.23265
G1 X159.600 Y148.854 E76.55482
G1 X159.103 Y150.055 E76.64484
G1 X158.055 Y151.102 E76.74751
G1 X156.855 Y151.600 E76.83753
G1 X77.534 Y151.600 E82.33384
G1 X75.621 Y149.687 E82.52130
G1 X75.621 Y149.071 E82.56394
G1 X75.400 Y148.522 E82.60496
G1 X75.400 Y86.146 E86.92713
G1 X75.897 Y84.945 E87.01715
G1 X76.349 Y84.494 E87.06135
G1 X76.627 Y84.687 F7800.000
G1 F1800
G1 X77.134 Y84.180 E87.11106
G1 X78.212 Y83.734 E87.19190
G1 X157.328 Y83.734 E92.67404
G1 X159.046 Y85.451 E92.84237
G1 X159.053 Y86.029 E92.88238
G1 X159.266 Y86.545 E92.92106
G1 X159.266 Y148.788 E97.23404
G1 X158.820 Y149.866 E97.31487
G1 X157.866 Y150.820 E97.40835
G1 X156.788 Y151.266 E97.48918
G1 X77.672 Y151.266 E102.97133
G1 X75.954 Y149.549 E103.13965
G1 X75.947 Y148.971 E103.17967
G1 X75.734 Y148.455 E103.21834
G1 X75.734 Y86.212 E107.53132
G1 X76.180 Y85.134 E107.61215
G1 X76.584 Y84.730 E107.65176
G1 X76.862 Y84.923 F7800.000
G1 F1800
G1 X77.323 Y84.463 E107.69688
G1 X78.278 Y84.067 E107.76852
G1 X157.190 Y84.067 E113.23651
G1 X158.713 Y85.590 E113.38570
G1 X158.719 Y86.095 E113.42074
G1 X158.933 Y86.611 E113.45942
G1 X158.933 Y148.722 E117.76321
G1 X158.537 Y149.677 E117.83485
G1 X157.677 Y150.537 E117.91914
G1 X156.722 Y150.933 E117.99078
G1 X77.810 Y150.933 E123.45877
G1 X76.287 Y149.410 E123.60796
G1 X76.281 Y148.905 E123.64300
G1 X76.067 Y148.389 E123.68168
G1 X76.067 Y86.278 E127.98547
G1 X76.463 Y85.323 E128.05711
G1 X76.820 Y84.966 E128.09213
G1 X77.098 Y85.159 F7800.000
G1 F1800
G1 X77.512 Y84.745 E128.13265
G1 X78.344 Y84.400 E128.19510
G1 X157.052 Y84.400 E133.64893
G1 X158.379 Y85.728 E133.77898
G1 X158.386 Y86.162 E133.80906
G1 X158.600 Y86.677 E133.84773
G1 X158.600 Y148.656 E138.14233
G1 X158.255 Y149.488 E138.20479
G1 X157.488 Y150.255 E138.27989
G1 X156.656 Y150.600 E138.34234
G1 X77.948 Y150.600 E143.79616
G1 X76.621 Y149.272 E143.92622
G1 X76.614 Y148.838 E143.95629
G1 X76.400 Y148.323 E143.99497
G1 X76.400 Y86.344 E148.28957
G1 X76.745 Y85.512 E148.35202
G1 X77.056 Y85.201 E148.38244
G1 X77.334 Y85.395 F7800.000
G1 F1800
G1 X77.700 Y85.028 E148.41837
G1 X78.411 Y84.734 E148.47164
G1 X156.914 Y84.734 E153.91130
G1 X158.046 Y85.866 E154.02222
G1 X158.053 Y86.228 E154.04732
G1 X158.266 Y86.744 E154.08600
G1 X158.266 Y148.589 E158.37141
G1 X157.972 Y149.299 E158.42468
G1 X157.300 Y149.972 E158.49059
G1 X156.589 Y150.266 E158.54385
G1 X78.086 Y150.266 E163.98351
G1 X76.954 Y149.134 E164.09444
G1 X76.947 Y148.772 E164.11954
G1 X76.734 Y148.257 E164.15821
G1 X76.734 Y86.411 E168.44362
G1 X77.028 Y85.701 E168.49689
G1 X77.291 Y85.437 E168.52272
G1 X77.569 Y85.630 F7800.000
G1 F1800
G1 X77.889 Y85.311 E168.55405
G1 X78.477 Y85.067 E168.59813
G1 X156.776 Y85.067 E174.02363
G1 X157.713 Y86.004 E174.11541
G1 X157.719 Y86.294 E174.13554
G1 X157.933 Y86.810 E174.17422
G1 X157.933 Y148.523 E178.45044
G1 X157.690 Y149.111 E178.49452
G1 X157.111 Y149.690 E178.55124
G1 X156.523 Y149.933 E178.59532
G1 X78.224 Y149.933 E184.02082
G1 X77.287 Y148.996 E184.11261
G1 X77.281 Y148.706 E184.13273
G1 X77.067 Y148.190 E184.17141
G1 X77.067 Y86.477 E188.44763
G1 X77.310 Y85.889 E188.49171
G1 X77.527 Y85.673 E188.51294
G1 X77.805 Y85.866 F7800.000
G1 F1800
G1 X78.078 Y85.593 E188.53968
G1 X78.543 Y85.400 E188.57457
G1 X156.638 Y85.400 E193.98591
G1 X157.379 Y86.142 E194.05856
G1 X157.379 Y86.346 E194.07268
G1 X157.600 Y86.876 E194.11249
G1 X157.600 Y148.457 E198.37952
G1 X157.407 Y148.922 E198.41441
G1 X156.922 Y149.407 E198.46195
G1 X156.457 Y149.600 E198.49684
G1 X78.362 Y149.600 E203.90817
G1 X77.621 Y148.858 E203.98082
G1 X77.621 Y148.654 E203.99495
G1 X77.400 Y148.124 E204.03475
G1 X77.400 Y86.543 E208.30179
G1 X77.593 Y86.078 E208.33667
G1 X77.763 Y85.908 E208.35331
G1 X78.041 Y86.102 F7800.000
G1 F1800
G1 X78.267 Y85.876 E208.37546
G1 X78.610 Y85.734 E208.40116
G1 X156.500 Y85.734 E213.79833
G1 X157.046 Y86.280 E213.85185
G1 X157.046 Y86.484 E213.86597
G1 X157.073 Y86.548 E213.87080
G1 X157.124 Y86.600 E213.87587
G1 X157.266 Y86.942 E213.90157
G1 X157.266 Y148.390 E218.15942
G1 X157.124 Y148.733 E218.18512
G1 X156.733 Y149.124 E218.22346
G1 X156.390 Y149.266 E218.24916
G1 X78.500 Y149.266 E223.64634
G1 X77.954 Y148.720 E223.69986
G1 X77.954 Y148.516 E223.71398
G1 X77.927 Y148.452 E223.71880
G1 X77.876 Y148.400 E223.72387
G1 X77.734 Y148.058 E223.74957
G1 X77.734 Y86.610 E228.00742
G1 X77.876 Y86.267 E228.03312
G1 X77.998 Y86.144 E228.04516
G1 X78.277 Y86.337 F7800.000
G1 F1800
G1 X78.456 Y86.158 E228.06272
G1 X78.676 Y86.067 E228.07923
G1 X156.362 Y86.067 E233.46224
G1 X156.713 Y86.418 E233.49662
G1 X156.713 Y86.622 E233.51075
G1 X156.739 Y86.686 E233.51557
G1 X156.842 Y86.789 E233.52561
G1 X156.933 Y87.009 E233.54212
G1 X156.933 Y148.324 E237.79078
G1 X156.842 Y148.544 E237.80729
G1 X156.544 Y148.842 E237.83645
G1 X156.324 Y148.933 E237.85296
G1 X78.638 Y148.933 E243.23598
G1 X78.287 Y148.582 E243.27036
G1 X78.287 Y148.378 E243.28448
G1 X78.261 Y148.314 E243.28931
G1 X78.158 Y148.211 E243.29935
G1 X78.067 Y147.991 E243.31586
G1 X78.067 Y86.676 E247.56452
G1 X78.158 Y86.456 E247.58103
G1 X78.234 Y86.380 E247.58848
G1 E242.58848 F2400.00000
G92 E0
G1 Z3.500 F7800.000
G1 X78.621 Y148.444 F7800.000
G1 Z0.500 F7800.000
G1 E5.00000 F2400.00000
G1 F1800
G1 X78.621 Y148.240 E5.01412
G1 X78.594 Y148.176 E5.01895
G1 X78.441 Y148.023 E5.03396
G1 X78.400 Y147.925 E5.04129
G1 X78.400 Y86.742 E9.28076
G1 X78.441 Y86.645 E9.28808
G1 X78.645 Y86.441 E9.30805
G1 X78.742 Y86.400 E9.31537
G1 X156.224 Y86.400 E14.68422
G1 X156.379 Y86.556 E14.69947
G1 X156.379 Y86.760 E14.71359
G1 X156.406 Y86.824 E14.71842
G1 X156.559 Y86.977 E14.73343
G1 X156.600 Y87.075 E14.74076
G1 X156.600 Y148.258 E18.98023
G1 X156.559 Y148.355 E18.98755
G1 X156.355 Y148.559 E19.00752
G1 X156.258 Y148.600 E19.01484
G1 X78.776 Y148.600 E24.38369
G1 X78.663 Y148.486 E24.39479
G1 X78.886 Y148.114 F7800.000
G1 F1800
G1 X156.114 Y148.114 E29.73585
G1 X156.114 Y147.781 E29.75886
G1 X78.886 Y147.781 E35.09992
G1 X78.886 Y147.448 E35.12294
G1 X156.114 Y147.448 E40.46400
G1 X156.114 Y147.115 E40.48701
G1 X78.886 Y147.115 E45.82807
G1 X78.886 Y146.783 E45.85109
G1 X156.114 Y146.783 E51.19215
G1 X156.114 Y146.450 E51.21516
G1 X78.886 Y146.450 E56.55622
G1 X78.886 Y146.117 E56.57924
G1 X156.114 Y146.117 E61.92030
G1 X156.114 Y145.784 E61.94331
G1 X78.886 Y145.784 E67.28438
G1 X78.886 Y145.452 E67.30739
G1 X156.114 Y145.452 E72.64845
G1 X156.114 Y145.119 E72.67146
G1 X78.886 Y145.119 E78.01253
G1 X78.886 Y144.786 E78.03554
G1 X156.114 Y144.786 E83.37660
G1 X156.114 Y144.453 E83.39961
G1 X78.886 Y144.453 E88.74068
G1 X78.886 Y144.121 E88.76369
G1 X156.114 Y144.121 E94.10475
G1 X156.114 Y143.788 E94.12777
G1 X78.886 Y143.788 E99.46883
G1 X78.886 Y143.455 E99.49184
G1 X156.114 Y143.455 E104.83290
G1 X156.114 Y143.122 E104.85592
G1 X78.886 Y143.122 E110.19698
G1 X78.886 Y142.790 E110.21999
G1 X156.114 Y142.790 E115.56105
G1 X156.114 Y142.457 E115.58407
G1 X78.886 Y142.457 E120.92513
G1 X78.886 Y142.124 E120.94814
G1 X156.114 Y142.124 E126.28920
G1 X156.114 Y141.791 E126.31222
G1 X78.886 Y141.791 E131.65328
G1 X78.886 Y141.459 E131.67629
G1 X156.114 Y141.459 E137.01736
G1 X156.114 Y141.126 E137.04037
G1 X78.886 Y141.126 E142.38143
G1 X78.886 Y140.793 E142.40444
G1 X156.114 Y140.793 E147.74551
G1 X156.114 Y140.460 E147.76852
G1 X78.886 Y140.460 E153.10958
G1 X78.886 Y140.127 E153.13260
G1 X156.114 Y140.127 E158.47366
G1 X156.114 Y139.795 E158.49667
G1 X78.886 Y139.795 E163.83773
G1 X78.886 Y139.462 E163.86075
G1 X156.114 Y139.462 E169.20181
G1 X156.114 Y139.129 E169.22482
G1 X78.886 Y139.129 E174.56588
G1 X78.886 Y138.796 E174.58890
G1 X156.114 Y138.796 E179.92996
G1 X156.114 Y138.464 E179.95297
G1 X78.886 Y138.464 E185.29403
G1 X78.886 Y138.131 E185.31705
G1 X156.114 Y138.131 E190.65811
G1 X156.114 Y137.798 E190.68112
G1 X78.886 Y137.798 E196.02219
G1 X78.886 Y137.465 E196.04520
G1 X156.114 Y137.465 E201.38626
G1 X156.114 Y137.133 E201.40927
G1 X78.886 Y137.133 E206.75034
G1 X78.886 Y136.800 E206.77335
G1 X156.114 Y136.800 E212.11441
G1 X156.114 Y136.467 E212.13742
G1 X78.886 Y136.467 E217.47849
G1 X78.886 Y136.134 E217.50150
G1 X156.114 Y136.134 E222.84256
G1 X156.114 Y135.802 E222.86558
G1 X78.886 Y135.802 E228.20664
G1 X78.886 Y135.469 E228.22965
G1 X156.114 Y135.469 E233.57071
G1 X156.114 Y135.136 E233.59373
G1 X78.886 Y135.136 E238.93479
G1 X78.886 Y134.803 E238.95780
G1 X156.114 Y134.803 E244.29886
G1 X156.114 Y134.471 E244.32188
G1 X78.886 Y134.471 E249.66294
G1 X78.886 Y134.138 E249.68595
G1 X156.114 Y134.138 E255.02701
G1 X156.114 Y133.805 E255.05003
G1 X78.886 Y133.805 E260.39109
G1 X78.886 Y133.472 E260.41410
G1 X156.114 Y133.472 E265.75517
G1 X156.114 Y133.140 E265.77818
G1 X78.886 Y133.140 E271.11924
G1 X78.886 Y132.807 E271.14225
G1 X156.114 Y132.807 E276.48332
G1 X156.114 Y132.474 E276.50633
G1 X78.886 Y132.474 E281.84739
G1 X78.886 Y132.141 E281.87041
G1 X156.114 Y132.141 E287.21147
G1 X156.114 Y131.809 E287.23448
G1 X78.886 Y131.809 E292.57554
G1 X78.886 Y131.476 E292.59856
G1 X156.114 Y131.476 E297.93962
G1 X156.114 Y131.143 E297.96263
G1 X78.886 Y131.143 E303.30369
G1 X78.886 Y130.810 E303.32671
G1 X156.114 Y130.810 E308.66777
G1 X156.114 Y130.478 E308.69078
G1 X78.886 Y130.478 E314.03184
G1 X78.886 Y130.145 E314.05486
G1 X156.114 Y130.145 E319.39592
G1 X156.114 Y129.812 E319.41893
G1 X78.886 Y129.812 E324.76000
G1 X78.886 Y129.479 E324.78301
G1 X156.114 Y129.479 E330.12407
G1 X156.114 Y129.147 E330.14708
G1 X78.886 Y129.147 E335.48815
G1 X78.886 Y128.814 E335.51116
G1 X156.114 Y128.814 E340.85222
G1 X156.114 Y128.481 E340.87523
G1 X78.886 Y128.481 E346.21630
G1 X78.886 Y128.148 E346.23931
G1 X156.114 Y128.148 E351.58037
G1 X156.114 Y127.815 E351.60339
G1 X78.886 Y127.815 E356.94445
G1 X78.886 Y127.483 E356.96746
G1 X156.114 Y127.483 E362.30852
G1 X156.114 Y127.150 E362.33154
G1 X78.886 Y127.150 E367.67260
G1 X78.886 Y126.817 E367.69561
G1 X156.114 Y126.817 E373.03667
G1 X156.114 Y126.484 E373.05969
G1 X78.886 Y126.484 E378.40075
G1 X78.886 Y126.152 E378.42376
G1 X156.114 Y126.152 E383.76482
G1 X156.114 Y125.819 E383.78784
G1 X78.886 Y125.819 E389.12890
G1 X78.886 Y125.486 E389.15191
G1 X156.114 Y125.486 E394.49298
G1 X156.114 Y125.153 E394.51599
G1 X78.886 Y125.153 E399.85705
G1 X78.886 Y124.821 E399.88006
G1 X156.114 Y124.821 E405.22113
G1 X156.114 Y124.488 E405.24414
G1 X78.886 Y124.488 E410.58520
G1 X78.886 Y124.155 E410.60822
G1 X156.114 Y124.155 E415.94928
G1 X156.114 Y123.822 E415.97229
G1 X78.886 Y123.822 E421.31335
G1 X78.886 Y123.490 E421.33637
G1 X156.114 Y123.490 E426.67743
G1 X156.114 Y123.157 E426.70044
G1 X78.886 Y123.157 E432.04150
G1 X78.886 Y122.824 E432.06452
G1 X156.114 Y122.824 E437.40558
G1 X156.114 Y122.491 E437.42859
G1 X78.886 Y122.491 E442.76965
G1 X78.886 Y122.159 E442.79267
G1 X156.114 Y122.159 E448.13373
G1 X156.114 Y121.826 E448.15674
G1 X78.886 Y121.826 E453.49781
G1 X78.886 Y121.493 E453.52082
G1 X156.114 Y121.493 E458.86188
G1 X156.114 Y121.160 E458.88489
G1 X78.886 Y121.160 E464.22596
G1 X78.886 Y120.828 E464.24897
G1 X156.114 Y120.828 E469.59003
G1 X156.114 Y120.495 E469.61304
G1 X78.886 Y120.495 E474.95411
G1 X78.886 Y120.162 E474.97712
G1 X156.114 Y120.162 E480.31818
G1 X156.114 Y119.829 E480.34120
G1 X78.886 Y119.829 E485.68226
G1 X78.886 Y119.497 E485.70527
G1 X156.114 Y119.497 E491.04633
G1 X156.114 Y119.164 E491.06935
G1 X78.886 Y119.164 E496.41041
G1 X78.886 Y118.831 E496.43342
G1 X156.114 Y118.831 E501.77448
G1 X156.114 Y118.498 E501.79750
G1 X78.886 Y118.498 E507.13856
G1 X78.886 Y118.166 E507.16157
G1 X156.114 Y118.166 E512.50263
G1 X156.114 Y117.833 E512.52565
G1 X78.886 Y117.833 E517.86671
G1 X78.886 Y117.500 E517.88972
G1 X156.114 Y117.500 E523.23079
G1 X156.114 Y117.167 E523.25380
G1 X78.886 Y117.167 E528.59486
G1 X78.886 Y116.834 E528.61787
G1 X156.114 Y116.834 E533.95894
G1 X156.114 Y116.502 E533.98195
G1 X78.886 Y116.502 E539.32301
G1 X78.886 Y116.169 E539.34603
G1 X156.114 Y116.169 E544.68709
G1 X156.114 Y115.836 E544.71010
G1 X78.886 Y115.836 E550.05116
G1 X78.886 Y115.503 E550.07418
G1 X156.114 Y115.503 E555.41524
G1 X156.114 Y115.171 E555.43825
G1 X78.886 Y115.171 E560.77931
G1 X78.886 Y114.838 E560.80233
G1 X156.114 Y114.838 E566.14339
G1 X156.114 Y114.505 E566.16640
G1 X78.886 Y114.505 E571.50746
G1 X78.886 Y114.172 E571.53048
G1 X156.114 Y114.172 E576.87154
G1 X156.114 Y113.840 E576.89455
G1 X78.886 Y113.840 E582.23562
G1 X78.886 Y113.507 E582.25863
G1 X156.114 Y113.507 E587.59969
G1 X156.114 Y113.174 E587.62270
G1 X78.886 Y113.174 E592.96377
G1 X78.886 Y112.841 E592.98678
G1 X156.114 Y112.841 E598.32784
G1 X156.114 Y112.509 E598.35085
G1 X78.886 Y112.509 E603.69192
G1 X78.886 Y112.176 E603.71493
