; generated by Slic3r 1.3.0 on 2022-04-25 at 15:54:48

; external perimeters extrusion width = 0.44mm (5.07mm^3/s)
; perimeters extrusion width = 0.48mm (11.31mm^3/s)
; infill extrusion width = 0.48mm (13.82mm^3/s)
; solid infill extrusion width = 0.48mm (7.54mm^3/s)
; top infill extrusion width = 0.48mm (1.88mm^3/s)

M190 S110 ; set bed temperature and wait for it to be reached
M104 S260 ; set temperature
G28 ; home all axes
G1 Z5 F5000 ; lift nozzle

; Filament gcode

M109 S260 ; set temperature and wait for it to be reached
G21 ; set units to millimeters
G90 ; use absolute coordinates
M82 ; use absolute distances for extrusion
G92 E0
G1 Z0.400 F7800.000
G1 E-5.00000 F2400.00000
G92 E0
G1 Z3.400 F7800.000
G1 X81.232 Y89.232 F7800.000
G1 Z0.400 F7800.000
G1 E5.00000 F2400.00000
G1 F1800
G1 X153.768 Y89.232 E9.03084
G1 X153.768 Y145.768 E12.17254
G1 X81.232 Y145.768 E16.20338
G1 X81.232 Y89.292 E19.34175
G1 X80.898 Y88.898 F7800.000
G1 F1800
G1 X154.102 Y88.898 E23.40973
G1 X154.102 Y146.102 E26.58857
G1 X80.898 Y146.102 E30.65655
G1 X80.898 Y88.958 E33.83206
G1 X80.564 Y88.564 F7800.000
G1 F1800
G1 X154.436 Y88.564 E37.93718
G1 X154.436 Y146.436 E41.15316
G1 X80.564 Y146.436 E45.25828
G1 X80.564 Y88.624 E48.47093
G1 X80.220 Y88.220 F7800.000
G1 F1800
G1 X154.780 Y88.220 E52.86228
G1 X154.780 Y146.780 E56.31129
G1 X80.220 Y146.780 E60.70264
G1 X80.220 Y88.280 E64.14811
G1 X80.610 Y88.308 F7800.000
G1 X81.697 Y89.437 F7800.000
G1 F1800
G1 X81.437 Y89.697 E64.16858
G1 X81.437 Y90.170 E64.19490
G1 X82.170 Y89.437 E64.25259
G1 X82.643 Y89.437 E64.27891
G1 X81.437 Y90.643 E64.37382
G1 X81.437 Y91.116 E64.40014
G1 X83.116 Y89.437 E64.53227
G1 X83.589 Y89.437 E64.55859
G1 X81.437 Y91.589 E64.72794
G1 X81.437 Y92.062 E64.75426
G1 X84.062 Y89.437 E64.96083
G1 X84.535 Y89.437 E64.98715
G1 X81.437 Y92.535 E65.23094
G1 X81.437 Y93.008 E65.25726
G1 X85.008 Y89.437 E65.53827
G1 X85.482 Y89.437 E65.56459
G1 X81.437 Y93.482 E65.88282
G1 X81.437 Y93.955 E65.90914
G1 X85.955 Y89.437 E66.26459
G1 X86.428 Y89.437 E66.29090
G1 X81.437 Y94.428 E66.68357
G1 X81.437 Y94.901 E66.70989
G1 X86.901 Y89.437 E67.13978
G1 X87.374 Y89.437 E67.16610
G1 X81.437 Y95.374 E67.63321
G1 X81.437 Y95.847 E67.65953
G1 X87.847 Y89.437 E68.16386
G1 X88.320 Y89.437 E68.19017
G1 X81.437 Y96.320 E68.73172
G1 X81.437 Y96.793 E68.75804
G1 X88.793 Y89.437 E69.33681
G1 X89.266 Y89.437 E69.36313
G1 X81.437 Y97.266 E69.97912
G1 X81.437 Y97.739 E70.00543
G1 X89.739 Y89.437 E70.65864
G1 X90.212 Y89.437 E70.68496
G1 X81.437 Y98.212 E71.37539
G1 X81.437 Y98.685 E71.40171
G1 X90.685 Y89.437 E72.12935
G1 X91.159 Y89.437 E72.15567
G1 X81.437 Y99.159 E72.92054
G1 X81.437 Y99.632 E72.94686
G1 X91.632 Y89.437 E73.74895
G1 X92.105 Y89.437 E73.77526
G1 X81.437 Y100.105 E74.61457
G1 X81.437 Y100.578 E74.64089
G1 X92.578 Y89.437 E75.51742
G1 X93.051 Y89.437 E75.54373
G1 X81.437 Y101.051 E76.45748
G1 X81.437 Y101.524 E76.48380
G1 X93.524 Y89.437 E77.43476
G1 X93.997 Y89.437 E77.46108
G1 X81.437 Y101.997 E78.44927
G1 X81.437 Y102.470 E78.47559
G1 X94.470 Y89.437 E79.50099
G1 X94.943 Y89.437 E79.52731
G1 X81.437 Y102.943 E80.58994
G1 X81.437 Y103.416 E80.61625
G1 X95.416 Y89.437 E81.71610
G1 X95.889 Y89.437 E81.74242
G1 X81.437 Y103.889 E82.87948
G1 X81.437 Y104.363 E82.90580
G1 X96.363 Y89.437 E84.08008
G1 X96.836 Y89.437 E84.10640
G1 X81.437 Y104.836 E85.31791
G1 X81.437 Y105.309 E85.34422
G1 X97.309 Y89.437 E86.59295
G1 X97.782 Y89.437 E86.61927
G1 X81.437 Y105.782 E87.90521
G1 X81.437 Y106.255 E87.93153
G1 X98.255 Y89.437 E89.25469
G1 X98.728 Y89.437 E89.28101
G1 X81.437 Y106.728 E90.64139
G1 X81.437 Y107.201 E90.66771
G1 X99.201 Y89.437 E92.06532
G1 X99.674 Y89.437 E92.09163
G1 X81.437 Y107.674 E93.52646
G1 X81.437 Y108.147 E93.55277
G1 X100.147 Y89.437 E95.02482
G1 X100.620 Y89.437 E95.05114
G1 X81.437 Y108.620 E96.56040
G1 X81.437 Y109.093 E96.58672
G1 X101.093 Y89.437 E98.13320
G1 X101.566 Y89.437 E98.15952
G1 X81.437 Y109.566 E99.74322
G1 X81.437 Y110.040 E99.76954
G1 X102.040 Y89.437 E101.39046
G1 X102.513 Y89.437 E101.41678
G1 X81.437 Y110.513 E103.07492
G1 X81.437 Y110.986 E103.10123
G1 X102.986 Y89.437 E104.79660
G1 X103.459 Y89.437 E104.82291
G1 X81.437 Y111.459 E106.55549
G1 X81.437 Y111.932 E106.58181
G1 X103.932 Y89.437 E108.35161
G1 X104.405 Y89.437 E108.37793
G1 X81.437 Y112.405 E110.18495
G1 X81.437 Y112.878 E110.21127
G1 X104.878 Y89.437 E112.05551
G1 X105.351 Y89.437 E112.08183
G1 X81.437 Y113.351 E113.96329
G1 X81.437 Y113.824 E113.98961
G1 X105.824 Y89.437 E115.90829
G1 X106.297 Y89.437 E115.93460
G1 X81.437 Y114.297 E117.89050
G1 X81.437 Y114.770 E117.91682
G1 X106.770 Y89.437 E119.90994
G1 X107.243 Y89.437 E119.93626
G1 X81.437 Y115.243 E121.96660
G1 X81.437 Y115.717 E121.99292
G1 X107.717 Y89.437 E124.06047
G1 X108.190 Y89.437 E124.08679
G1 X81.437 Y116.190 E126.19157
G1 X81.437 Y116.663 E126.21789
G1 X108.663 Y89.437 E128.35989
G1 X109.136 Y89.437 E128.38620
G1 X81.437 Y117.136 E130.56542
G1 X81.437 Y117.609 E130.59174
G1 X109.609 Y89.437 E132.80818
G1 X110.082 Y89.437 E132.83450
G1 X81.437 Y118.082 E135.08815
G1 X81.437 Y118.555 E135.11447
G1 X110.555 Y89.437 E137.40535
G1 X111.028 Y89.437 E137.43167
G1 X81.437 Y119.028 E139.75976
G1 X81.437 Y119.501 E139.78608
G1 X111.501 Y89.437 E142.15140
G1 X111.974 Y89.437 E142.17772
G1 X81.437 Y119.974 E144.58025
G1 X81.437 Y120.447 E144.60657
G1 X112.447 Y89.437 E147.04633
G1 X112.921 Y89.437 E147.07265
G1 X81.437 Y120.921 E149.54962
G1 X81.437 Y121.394 E149.57594
G1 X113.394 Y89.437 E152.09014
G1 X113.867 Y89.437 E152.11645
G1 X81.437 Y121.867 E154.66787
G1 X81.437 Y122.340 E154.69419
G1 X114.340 Y89.437 E157.28282
G1 X114.813 Y89.437 E157.30914
G1 X81.437 Y122.813 E159.93499
G1 X81.437 Y123.286 E159.96131
G1 X115.286 Y89.437 E162.62439
G1 X115.759 Y89.437 E162.65071
G1 X81.437 Y123.759 E165.35100
G1 X81.437 Y124.232 E165.37732
G1 X116.232 Y89.437 E168.11483
G1 X116.705 Y89.437 E168.14115
G1 X81.437 Y124.705 E170.91588
G1 X81.437 Y125.178 E170.94220
G1 X117.178 Y89.437 E173.75415
G1 X117.651 Y89.437 E173.78047
G1 X81.437 Y125.651 E176.62965
G1 X81.437 Y126.124 E176.65596
G1 X118.124 Y89.437 E179.54236
G1 X118.598 Y89.437 E179.56868
G1 X81.437 Y126.598 E182.49229
G1 X81.437 Y127.071 E182.51861
G1 X119.071 Y89.437 E185.47944
G1 X119.544 Y89.437 E185.50576
G1 X81.437 Y127.544 E188.50381
G1 X81.437 Y128.017 E188.53013
G1 X120.017 Y89.437 E191.56540
G1 X120.490 Y89.437 E191.59172
G1 X81.437 Y128.490 E194.66421
G1 X81.437 Y128.963 E194.69053
G1 X120.963 Y89.437 E197.80024
G1 X121.436 Y89.437 E197.82656
G1 X81.437 Y129.436 E200.97349
G1 X81.437 Y129.909 E200.99981
G1 X121.909 Y89.437 E204.18396
G1 X122.382 Y89.437 E204.21028
G1 X81.437 Y130.382 E207.43165
G1 X81.437 Y130.855 E207.45796
G1 X122.855 Y89.437 E210.71655
G1 X123.328 Y89.437 E210.74287
G1 X81.437 Y131.328 E214.03868
G1 X81.437 Y131.801 E214.06500
G1 X123.801 Y89.437 E217.39803
G1 X124.275 Y89.437 E217.42435
G1 X81.437 Y132.275 E220.79460
G1 X81.437 Y132.748 E220.82092
G1 X124.748 Y89.437 E224.22839
G1 X125.221 Y89.437 E224.25470
G1 X81.437 Y133.221 E227.69939
G1 X81.437 Y133.694 E227.72571
G1 X125.694 Y89.437 E231.20762
G1 X126.167 Y89.437 E231.23394
G1 X81.437 Y134.167 E234.75307
G1 X81.437 Y134.640 E234.77939
G1 X126.640 Y89.437 E238.33573
G1 X127.113 Y89.437 E238.36205
G1 X81.437 Y135.113 E241.95562
G1 X81.437 Y135.586 E241.98194
G1 X127.586 Y89.437 E245.61273
G1 X128.059 Y89.437 E245.63905
G1 X81.437 Y136.059 E249.30705
G1 X81.437 Y136.532 E249.33337
G1 X128.532 Y89.437 E253.03860
G1 X129.005 Y89.437 E253.06492
G1 X81.437 Y137.005 E256.80736
G1 X81.437 Y137.479 E256.83368
G1 X129.479 Y89.437 E260.61335
G1 X129.952 Y89.437 E260.63967
G1 X81.437 Y137.952 E264.45655
G1 X81.437 Y138.425 E264.48287
G1 X130.425 Y89.437 E268.33698
G1 X130.898 Y89.437 E268.36330
G1 X81.437 Y138.898 E272.25462
G1 X81.437 Y139.371 E272.28094
G1 X131.371 Y89.437 E276.20949
G1 X131.844 Y89.437 E276.23580
G1 X81.437 Y139.844 E280.20157
G1 X81.437 Y140.317 E280.22789
G1 X132.317 Y89.437 E284.23087
G1 X132.790 Y89.437 E284.25719
G1 X81.437 Y140.790 E288.29740
G1 X81.437 Y141.263 E288.32372
G1 X133.263 Y89.437 E292.40114
G1 X133.736 Y89.437 E292.42746
G1 X81.437 Y141.736 E296.54210
G1 X81.437 Y142.209 E296.56842
G1 X134.209 Y89.437 E300.72029
G1 X134.682 Y89.437 E300.74660
G1 X81.437 Y142.682 E304.93569
G1 X81.437 Y143.156 E304.96201
G1 X135.156 Y89.437 E309.18831
G1 X135.629 Y89.437 E309.21463
G1 X81.437 Y143.629 E313.47815
G1 X81.437 Y144.102 E313.50447
G1 X136.102 Y89.437 E317.80521
G1 X136.575 Y89.437 E317.83153
G1 X81.437 Y144.575 E322.16949
G1 X81.437 Y145.048 E322.19581
G1 X137.048 Y89.437 E326.57099
G1 X137.521 Y89.437 E326.59731
G1 X81.437 Y145.521 E331.00972
G1 X81.437 Y145.563 E331.01207
G1 X81.867 Y145.563 E331.03603
G1 X137.994 Y89.437 E335.45177
G1 X138.467 Y89.437 E335.47809
G1 X82.340 Y145.563 E339.89383
G1 X82.814 Y145.563 E339.92014
G1 X138.940 Y89.437 E344.33588
G1 X139.413 Y89.437 E344.36220
G1 X83.287 Y145.563 E348.77794
G1 X83.760 Y145.563 E348.80426
G1 X139.886 Y89.437 E353.21999
G1 X140.359 Y89.437 E353.24631
G1 X84.233 Y145.563 E357.66205
G1 X84.706 Y145.563 E357.68837
G1 X140.833 Y89.437 E362.10410
G1 X141.306 Y89.437 E362.13042
G1 X85.179 Y145.563 E366.54616
G1 X85.652 Y145.563 E366.57248
G1 X141.779 Y89.437 E370.98821
G1 X142.252 Y89.437 E371.01453
G1 X86.125 Y145.563 E375.43027
G1 X86.598 Y145.563 E375.45659
G1 X142.725 Y89.437 E379.87233
G1 X143.198 Y89.437 E379.89864
G1 X87.071 Y145.563 E384.31438
G1 X87.544 Y145.563 E384.34070
G1 X143.671 Y89.437 E388.75644
G1 X144.144 Y89.437 E388.78275
G1 X88.017 Y145.563 E393.19849
G1 X88.491 Y145.563 E393.22481
G1 X144.617 Y89.437 E397.64055
G1 X145.090 Y89.437 E397.66687
G1 X88.964 Y145.563 E402.08260
G1 X89.437 Y145.563 E402.10892
G1 X145.563 Y89.437 E406.52466
G1 X146.037 Y89.437 E406.55098
G1 X89.910 Y145.563 E410.96671
G1 X90.383 Y145.563 E410.99303
G1 X146.510 Y89.437 E415.40877
G1 X146.983 Y89.437 E415.43509
G1 X90.856 Y145.563 E419.85082
G1 X91.329 Y145.563 E419.87714
G1 X147.456 Y89.437 E424.29288
G1 X147.929 Y89.437 E424.31920
G1 X91.802 Y145.563 E428.73493
G1 X92.275 Y145.563 E428.76125
G1 X148.402 Y89.437 E433.17699
G1 X148.875 Y89.437 E433.20331
G1 X92.748 Y145.563 E437.61904
G1 X93.221 Y145.563 E437.64536
G1 X149.348 Y89.437 E442.06110
G1 X149.821 Y89.437 E442.08742
G1 X93.694 Y145.563 E446.50316
G1 X94.168 Y145.563 E446.52947
G1 X150.294 Y89.437 E450.94521
G1 X150.767 Y89.437 E450.97153
G1 X94.641 Y145.563 E455.38727
G1 X95.114 Y145.563 E455.41358
G1 X151.240 Y89.437 E459.82932
G1 X151.714 Y89.437 E459.85564
G1 X95.587 Y145.563 E464.27138
G1 X96.060 Y145.563 E464.29770
G1 X152.187 Y89.437 E468.71343
G1 X152.660 Y89.437 E468.73975
G1 X96.533 Y145.563 E473.15549
G1 X97.006 Y145.563 E473.18181
G1 X153.133 Y89.437 E477.59754
G1 X153.563 Y89.437 E477.62149
G1 X153.563 Y89.479 E477.62386
G1 X97.479 Y145.563 E482.03625
G1 X97.952 Y145.563 E482.06257
G1 X153.563 Y89.952 E486.43774
G1 X153.563 Y90.425 E486.46406
G1 X98.425 Y145.563 E490.80201
G1 X98.898 Y145.563 E490.82833
G1 X153.563 Y90.898 E495.12906
G1 X153.563 Y91.372 E495.15538
G1 X99.372 Y145.563 E499.41889
G1 X99.845 Y145.563 E499.44520
G1 X153.563 Y91.845 E503.67150
G1 X153.563 Y92.318 E503.69781
G1 X100.318 Y145.563 E507.88689
G1 X100.791 Y145.563 E507.91320
G1 X153.563 Y92.791 E512.06506
G1 X153.563 Y93.264 E512.09137
G1 X101.264 Y145.563 E516.20601
G1 X101.737 Y145.563 E516.23232
G1 X153.563 Y93.737 E520.30974
G1 X153.563 Y94.210 E520.33605
G1 X102.210 Y145.563 E524.37625
G1 X102.683 Y145.563 E524.40257
G1 X153.563 Y94.683 E528.40554
G1 X153.563 Y95.156 E528.43186
G1 X103.156 Y145.563 E532.39761
G1 X103.629 Y145.563 E532.42393
G1 X153.563 Y95.629 E536.35246
G1 X153.563 Y96.102 E536.37878
G1 X104.102 Y145.563 E540.27009
G1 X104.575 Y145.563 E540.29641
G1 X153.563 Y96.575 E544.15050
G1 X153.563 Y97.049 E544.17682
G1 X105.049 Y145.563 E547.99370
G1 X105.522 Y145.563 E548.02001
G1 X153.563 Y97.522 E551.79967
G1 X153.563 Y97.995 E551.82599
G1 X105.995 Y145.563 E555.56842
G1 X106.468 Y145.563 E555.59474
G1 X153.563 Y98.468 E559.29995
G1 X153.563 Y98.941 E559.32627
G1 X106.941 Y145.563 E562.99427
G1 X107.414 Y145.563 E563.02059
G1 X153.563 Y99.414 E566.65136
G1 X153.563 Y99.887 E566.67768
G1 X107.887 Y145.563 E570.27124
G1 X108.360 Y145.563 E570.29755
G1 X153.563 Y100.360 E573.85389
G1 X153.563 Y100.833 E573.88021
G1 X108.833 Y145.563 E577.39932
G1 X109.306 Y145.563 E577.42564
G1 X153.563 Y101.306 E580.90754
G1 X153.563 Y101.779 E580.93386
G1 X109.779 Y145.563 E584.37853
G1 X110.252 Y145.563 E584.40485
G1 X153.563 Y102.253 E587.81231
G1 X153.563 Y102.726 E587.83863
G1 X110.726 Y145.563 E591.20886
G1 X111.199 Y145.563 E591.23518
G1 X153.563 Y103.199 E594.56820
G1 X153.563 Y103.672 E594.59452
G1 X111.672 Y145.563 E597.89031
G1 X112.145 Y145.563 E597.91663
G1 X153.563 Y104.145 E601.17521
G1 X153.563 Y104.618 E601.20153
G1 X112.618 Y145.563 E604.42289
G1 X113.091 Y145.563 E604.44921
G1 X153.563 Y105.091 E607.63334
G1 X153.563 Y105.564 E607.65966
G1 X113.564 Y145.563 E610.80658
G1 X114.037 Y145.563 E610.83290
G1 X153.563 Y106.037 E613.94260
G1 X153.563 Y106.510 E613.96892
G1 X114.510 Y145.563 E617.04139
G1 X114.983 Y145.563 E617.06771
G1 X153.563 Y106.983 E620.10297
G1 X153.563 Y107.456 E620.12929
G1 X115.456 Y145.563 E623.12733
G1 X115.930 Y145.563 E623.15365
G1 X153.563 Y107.930 E626.11447
G1 X153.563 Y108.403 E626.14079
G1 X116.403 Y145.563 E629.06439
G1 X116.876 Y145.563 E629.09070
G1 X153.563 Y108.876 E631.97708
G1 X153.563 Y109.349 E632.00340
G1 X117.349 Y145.563 E634.85256
G1 X117.822 Y145.563 E634.87888
G1 X153.563 Y109.822 E637.69082
G1 X153.563 Y110.295 E637.71714
G1 X118.295 Y145.563 E640.49186
G1 X118.768 Y145.563 E640.51818
G1 X153.563 Y110.768 E643.25568
G1 X153.563 Y111.241 E643.28200
G1 X119.241 Y145.563 E645.98228
G1 X119.714 Y145.563 E646.00860
G1 X153.563 Y111.714 E648.67166
G1 X153.563 Y112.187 E648.69798
G1 X120.187 Y145.563 E651.32382
G1 X120.660 Y145.563 E651.35014
G1 X153.563 Y112.660 E653.93876
G1 X153.563 Y113.133 E653.96508
G1 X121.133 Y145.563 E656.51648
G1 X121.607 Y145.563 E656.54280
G1 X153.563 Y113.607 E659.05698
G1 X153.563 Y114.080 E659.08330
G1 X122.080 Y145.563 E661.56026
G1 X122.553 Y145.563 E661.58658
G1 X153.563 Y114.553 E664.02633
G1 X153.563 Y115.026 E664.05264
G1 X123.026 Y145.563 E666.45517
G1 X123.499 Y145.563 E666.48149
G1 X153.563 Y115.499 E668.84679
G1 X153.563 Y115.972 E668.87311
G1 X123.972 Y145.563 E671.20119
G1 X124.445 Y145.563 E671.22751
G1 X153.563 Y116.445 E673.51838
G1 X153.563 Y116.918 E673.54469
G1 X124.918 Y145.563 E675.79834
G1 X125.391 Y145.563 E675.82466
G1 X153.563 Y117.391 E678.04108
G1 X153.563 Y117.864 E678.06740
G1 X125.864 Y145.563 E680.24660
G1 X126.337 Y145.563 E680.27292
G1 X153.563 Y118.337 E682.41491
G1 X153.563 Y118.811 E682.44123
G1 X126.810 Y145.563 E684.54599
G1 X127.284 Y145.563 E684.57231
G1 X153.563 Y119.284 E686.63986
G1 X153.563 Y119.757 E686.66617
G1 X127.757 Y145.563 E688.69650
G1 X128.230 Y145.563 E688.72282
G1 X153.563 Y120.230 E690.71593
G1 X153.563 Y120.703 E690.74224
G1 X128.703 Y145.563 E692.69813
G1 X129.176 Y145.563 E692.72445
G1 X153.563 Y121.176 E694.64312
G1 X153.563 Y121.649 E694.66943
G1 X129.649 Y145.563 E696.55088
G1 X130.122 Y145.563 E696.57720
G1 X153.563 Y122.122 E698.42143
G1 X153.563 Y122.595 E698.44774
G1 X130.595 Y145.563 E700.25475
G1 X131.068 Y145.563 E700.28107
G1 X153.563 Y123.068 E702.05086
G1 X153.563 Y123.541 E702.07718
G1 X131.541 Y145.563 E703.80974
G1 X132.014 Y145.563 E703.83606
G1 X153.563 Y124.014 E705.53141
